config/includes.chroot/usr/share/icons/Tela-circle/scalable/mimetypes/application-vnd.ms-infopath.svg

<svg width="64" height="64" version="1.1" viewBox="0 0 64 64" xmlns="http://www.w3.org/2000/svg">
 <defs>
  <linearGradient id="a" x1="49.571" x2="51.714" y1="52.714" y2="54.857" gradientTransform="matrix(2.3333,0,0,2.3333,-68.667,-72.001)" gradientUnits="userSpaceOnUse">
   <stop offset="0"/>
   <stop stop-opacity="0" offset="1"/>
  </linearGradient>
 </defs>
 <g transform="scale(1)">
  <rect x="8" y="4" width="48" height="56" ry="5" fill="#8e50c7" style="paint-order:stroke fill markers"/>
  <path d="m56 46-14 14h9c2.77 0 5-2.23 5-5z" fill="url(#a)" fill-rule="evenodd" opacity=".15" stroke-width="8.8191" style="paint-order:stroke fill markers"/>
 </g>
 <path d="m38 18-4 4.5-1.26 1.5h3.26v3h-12v13h-3.238l1.238 1.5 4 4.5 4-4.5 1.26-1.5h-3.26v-3h12v-13h3.238l-1.238-1.5zm-10 13h8v2h-8z" color="#4d4d4d" color-rendering="auto" fill="#fff" image-rendering="auto" opacity=".75" shape-rendering="auto" solid-color="#000000" style="isolation:auto;mix-blend-mode:normal"/>
</svg>

<svg width="64" height="64" xmlns="http://www.w3.org/2000/svg"><defs><linearGradient id="a" x1="49.571" x2="51.714" y1="52.714" y2="54.857" gradientTransform="translate(-68.667 -72.001) scale(2.3333)" gradientUnits="userSpaceOnUse"><stop offset="0"/><stop stop-opacity="0" offset="1"/></linearGradient></defs><g><rect x="8" y="4" width="48" height="56" ry="5" fill="#8e50c7" style="paint-order:stroke fill markers"/><path d="M56 46 42 60h9c2.77 0 5-2.23 5-5z" fill="url(#a)" fill-rule="evenodd" opacity=".15" style="paint-order:stroke fill markers"/></g><path d="m38 18-4 4.5-1.26 1.5H36v3H24v13h-3.238L22 41.5l4 4.5 4-4.5 1.26-1.5H28v-3h12V24h3.238L42 22.5zM28 31h8v2h-8z" color="#4d4d4d" fill="#fff" opacity=".75" style="isolation:auto;mix-blend-mode:normal"/></svg>
